web/themes/custom/oh_my_pasta/images/icons/linkedin.svg

<svg width="48" height="48" viewBox="0 0 48 48" fill="none" xmlns="http://www.w3.org/2000/svg">
<g clip-path="url(#clip0_3251_4359)">
<rect width="48" height="48" rx="8" fill="#004A36"/>
<path d="M41.9999 42V28.815C41.9999 22.335 40.6049 17.385 33.0449 17.385C29.419 17.385 26.9954 19.3443 25.9956 21.2253C25.9858 21.2437 25.9668 21.255 25.9459 21.255C25.915 21.255 25.8899 21.2299 25.8899 21.1989V18.97C25.8899 18.4177 25.4421 17.97 24.8899 17.97H19.7349C19.1826 17.97 18.7349 18.4177 18.7349 18.97V41C18.7349 41.5523 19.1826 42 19.7349 42H25.2049C25.7571 42 26.2049 41.5523 26.2049 41V30.075C26.2049 26.925 26.7899 23.91 30.6599 23.91C34.4849 23.91 34.5299 27.465 34.5299 30.255V40.955C34.5299 41.5073 34.9776 41.955 35.5299 41.955H41.9549C41.9797 41.955 41.9999 41.9752 41.9999 42Z" fill="white"/>
<path d="M6.58496 18.97C6.58496 18.4177 7.03268 17.97 7.58496 17.97H13.055C13.6072 17.97 14.055 18.4177 14.055 18.97V41C14.055 41.5523 13.6072 42 13.055 42H7.58496C7.03268 42 6.58496 41.5523 6.58496 41V18.97Z" fill="white"/>
<path d="M10.32 6C7.935 6 6 7.935 6 10.32C6 12.705 7.935 14.685 10.32 14.685C12.705 14.685 14.64 12.705 14.64 10.32C14.64 7.935 12.705 6 10.32 6Z" fill="white"/>
</g>
<defs>
<clipPath id="clip0_3251_4359">
<rect width="48" height="48" fill="white"/>
</clipPath>
</defs>
</svg>

<svg width="48" height="48" fill="none" xmlns="http://www.w3.org/2000/svg"><g clip-path="url(#clip0_3251_4359)"><rect width="48" height="48" rx="8" fill="#004A36"/><path d="M42 42V28.815c0-6.48-1.395-11.43-8.955-11.43-3.626 0-6.05 1.96-7.05 3.84a.056.056 0 01-.105-.026V18.97a1 1 0 00-1-1h-5.155a1 1 0 00-1 1V41a1 1 0 001 1h5.47a1 1 0 001-1V30.075c0-3.15.585-6.165 4.455-6.165 3.825 0 3.87 3.555 3.87 6.345v10.7a1 1 0 001 1h6.425c.025 0 .045.02.045.045zM6.585 18.97a1 1 0 011-1h5.47a1 1 0 011 1V41a1 1 0 01-1 1h-5.47a1 1 0 01-1-1V18.97zM10.32 6A4.321 4.321 0 006 10.32c0 2.385 1.935 4.365 4.32 4.365 2.385 0 4.32-1.98 4.32-4.365A4.321 4.321 0 0010.32 6z" fill="#fff"/></g><defs><clipPath id="clip0_3251_4359"><path fill="#fff" d="M0 0h48v48H0z"/></clipPath></defs></svg>
